src/22/panel/kazam-countdown.svg

<svg xmlns="http://www.w3.org/2000/svg" width="22" height="22" version="1">
 <defs>
  <style id="current-color-scheme" type="text/css">
   .ColorScheme-Text { color:#dfdfdf; } .ColorScheme-Highlight { color:#4285f4; }
  </style>
 </defs>
 <path style="fill:currentColor" class="ColorScheme-Text" d="M 3.1816406 5 C 2.5269406 5 2 5.5344188 2 6.1992188 L 2 15.800781 C 2 16.465781 2.5269406 17 3.1816406 17 L 13.818359 17 C 14.473359 17 15 16.465781 15 15.800781 L 15 13 L 20 15 L 20 7 L 15 9 L 15 6.1992188 C 15 5.5344188 14.473359 5 13.818359 5 L 3.1816406 5 z M 8 7 A 4 4 0 0 1 12 11 A 4 4 0 0 1 8 15 A 4 4 0 0 1 4 11 A 4 4 0 0 1 8 7 z M 8 8 A 3 3 0 0 0 5 11 A 3 3 0 0 0 8 14 A 3 3 0 0 0 11 11 A 3 3 0 0 0 8 8 z"/>
</svg>

<svg xmlns="http://www.w3.org/2000/svg" width="22" height="22" version="1"><defs><style id="current-color-scheme" type="text/css"></style></defs><path d="M3.182 5C2.527 5 2 5.534 2 6.2v9.6c0 .666.527 1.2 1.182 1.2h10.636c.655 0 1.182-.534 1.182-1.2V13l5 2V7l-5 2V6.2c0-.666-.527-1.2-1.182-1.2H3.182zM8 7a4 4 0 0 1 4 4 4 4 0 0 1-4 4 4 4 0 0 1-4-4 4 4 0 0 1 4-4zm0 1a3 3 0 0 0-3 3 3 3 0 0 0 3 3 3 3 0 0 0 3-3 3 3 0 0 0-3-3z" fill="currentColor" color="#bebebe"/></svg>
